assets/images/addCv.svg

<svg width="20" height="20" viewBox="0 0 20 20" fill="none" xmlns="http://www.w3.org/2000/svg">
<g clip-path="url(#clip0_109_5849)">
<path d="M17.5 10H10C8.61917 10 7.5 11.1192 7.5 12.5V17.5C7.5 18.8808 8.61917 20 10 20H17.5C18.8808 20 20 18.8808 20 17.5V12.5C20 11.1192 18.8808 10 17.5 10ZM11.25 17C11.5925 17 11.8817 16.77 11.9717 16.4558C11.99 16.39 12.0283 15.8333 12.6675 15.8333C13.3067 15.8333 13.3433 16.4208 13.3333 16.5033C13.2083 17.5342 12.315 18.3333 11.25 18.3333C10.0992 18.3333 9.16667 17.4008 9.16667 16.25V13.75C9.16667 12.5992 10.0992 11.6667 11.25 11.6667C12.3175 11.6667 13.2117 12.4692 13.3333 13.5033C13.3425 13.5842 13.335 14.1667 12.6633 14.1667C11.9917 14.1667 11.9892 13.605 11.9692 13.5375C11.8775 13.2275 11.5892 13 11.25 13C10.8367 13 10.5 13.3367 10.5 13.75V16.25C10.5 16.6633 10.8367 17 11.25 17ZM17.505 17.0208C17.4 17.56 17.0192 18.3333 16.1483 18.3333C15.2775 18.3333 14.89 17.525 14.8 17.0575L13.9067 12.68C13.8225 12.2667 14.1383 11.88 14.56 11.88C14.8767 11.88 15.15 12.1033 15.2133 12.4133L16.1067 16.7908C16.1175 16.845 16.1325 16.8883 16.1483 16.9233C16.165 16.8842 16.1833 16.8325 16.1958 16.7667L17.0733 12.415C17.1358 12.1042 17.4092 11.88 17.7267 11.88C18.1475 11.88 18.4633 12.2658 18.38 12.6783L17.5042 17.0208H17.505ZM11.6667 5C11.6667 2.2425 9.42417 0 6.66667 0C3.90917 0 1.66667 2.2425 1.66667 5C1.66667 7.7575 3.90917 10 6.66667 10C9.42417 10 11.6667 7.7575 11.6667 5ZM6.66667 8.33333C4.82833 8.33333 3.33333 6.83833 3.33333 5C3.33333 3.16167 4.82833 1.66667 6.66667 1.66667C8.505 1.66667 10 3.16167 10 5C10 6.83833 8.505 8.33333 6.66667 8.33333ZM5.79833 12.5042C5.93 12.945 5.67833 13.4092 5.2375 13.54C3.135 14.1658 1.66667 16.1367 1.66667 18.3333V19.1667C1.66667 19.6275 1.29333 20 0.833333 20C0.373333 20 0 19.6275 0 19.1667V18.3333C0 15.405 1.95833 12.7775 4.7625 11.9433C5.2025 11.8133 5.66667 12.0625 5.79833 12.5042Z" fill="#009640"/>
</g>
<defs>
<clipPath id="clip0_109_5849">
<rect width="20" height="20" fill="white"/>
</clipPath>
</defs>
</svg>

<svg width="20" height="20" fill="none" xmlns="http://www.w3.org/2000/svg"><g clip-path="url(#a)"><path d="M17.5 10H10a2.5 2.5 0 0 0-2.5 2.5v5A2.5 2.5 0 0 0 10 20h7.5a2.5 2.5 0 0 0 2.5-2.5v-5a2.5 2.5 0 0 0-2.5-2.5Zm-6.25 7c.342 0 .632-.23.722-.544.018-.066.056-.623.696-.623.639 0 .675.588.665.67a2.099 2.099 0 0 1-2.083 1.83 2.083 2.083 0 0 1-2.083-2.083v-2.5c0-1.15.932-2.083 2.083-2.083 1.068 0 1.962.802 2.083 1.836.01.081.002.664-.67.664-.671 0-.674-.562-.694-.63a.751.751 0 0 0-1.47.213v2.5c.001.413.338.75.751.75Zm6.255.02c-.105.54-.486 1.313-1.357 1.313-.87 0-1.258-.808-1.348-1.275l-.893-4.378a.667.667 0 0 1 1.306-.267l.894 4.378c.01.054.026.097.041.132a.751.751 0 0 0 .048-.156l.877-4.352a.667.667 0 1 1 1.307.263l-.876 4.343h.001ZM11.667 5c0-2.757-2.243-5-5-5-2.758 0-5 2.243-5 5 0 2.758 2.242 5 5 5 2.757 0 5-2.242 5-5Zm-5 3.333A3.337 3.337 0 0 1 3.333 5a3.337 3.337 0 0 1 3.334-3.333A3.337 3.337 0 0 1 10 5a3.337 3.337 0 0 1-3.333 3.333Zm-.869 4.171a.832.832 0 0 1-.56 1.036 5.03 5.03 0 0 0-3.571 4.793v.834a.833.833 0 1 1-1.667 0v-.834c0-2.928 1.958-5.555 4.763-6.39.44-.13.904.12 1.035.561Z" fill="#009640"/></g><defs><clipPath id="a"><path fill="#fff" d="M0 0h20v20H0z"/></clipPath></defs></svg>
